X:1
T:Prelude in D Minor
T:Prelude in D Minor
T:BWV 935
T:Johann Sebastian Bach
C:Johann Sebastian Bach
%%score { 1 | ( 2 3 ) }
L:1/8
Q:1/8=126
M:3/8
K:F
V:1 treble nm="Piano" snm="Pno."
V:2 bass 
V:3 bass 
V:1
 D/^C/D/A,/D/F/ | E/D/E/A,/E/G/ | FAA | PA3 | A/B/A/f/d/A/ | B/A/B/G/B/d/ | e/f/e/c/g/B/ | %7
 A/G/A/F/A/c/ | d/_e/d/c/d/B/ | c/d/c/B/c/A/ | B/c/B/A/B/G/ | A/B/A/G/A/F/ | .B.g.G | .A.f.F | %14
 .d.f.B | .c.f.A | G/A/=B/c/d/e/ | f/_a/g/f/e/d/ | e/g/f/e/d/c/ | B/d/c/B/A/G/ | A/B/A/G/A/F/ | %21
 .D(G3/2A/4B/4) |{F} P!turn!E2 F | F3 :: a/b/a/c'/a/f/ | g/a/g/c'/g/e/ | f/a/g/f/e/d/ | %27
 e/d/c/d/e/f/ | g^f/g/a/f/ | gd_e | c/_e/d/c/B/A/ | B/A/G/A/B/G/ | A/B/A/d/B/d/ | ^F/E/F/d/G/d/ | %34
 A/G/A/d/G/d/ | ^F/E/F/d/A/c/ | B/A/B/d/e/f/ | A2 .a | .d/(fe/d/^c/) | d/e/f/e/f/e/ | .^c a2- | %41
 .a.d.c- | c B2- | B/A/G/F/E/^c/ | d/e/d/^c/d/f/ | .B.^ce- | e/(B/A/G/F/E/ | D3) :| %48
V:2
 z3 | z3 | D,/^C,/D,/A,,/D,/F,/ | E,/D,/E,/A,,/E,/G,/ | .F,.D,.F, | .G,.G,, z | z .C,.E, | %7
 .F,.F,, z | .B,.G.G, | .A,.F.F, | .G,.E.E, | .F,.C._E | D/_E/D/C/D/B,/ | C/D/C/B,/C/A,/ | %14
 B,/C/B,/A,/B,/G,/ | A,/B,/A,/G,/A,/F,/ | .=B,.D.F | .D.=B,.G, | .C.G,.E, | .C,.D,.E, | %20
 F,/E,/F,/C,/F,/A,/ | B,/A,/B,/G,/B,/D/ | C/D/C/B,/A,/G,/ | A,3 :: .F.F,.F | .E.A,.C | .D.=B,.G, | %27
 .C.E,.G, | C,/D,/C,/_E,/C,/A,,/ | B,,/C,/B,,/D,/B,,/G,,/ | A,,/C,/B,,/A,,/G,,/^F,,/ | %31
 G,,/A,,/B,,/C,/D,/E,/ | .^F,.D,.G, | .A,.D,.B, | .D.D,.B, | .A,.D,.^F, | G,/^F,/G,/B,/G,/E,/ | %37
 ^C,/=B,,/C,/E,/C,/A,,/ | (F,,G,,A,,) | D,/^C,/D,/A,,/D,/F,/ | E,/D,/E,/A,,/E,/G,/ | %41
 ^F,/E,/F,/D,/F,/A,/ | G,/^F,/G,/D,/G,/B,/ | .^C,.A,,.G, | F,/G,/F,/E,/F,/D,/ | B,/C/B,/A,/B,/G,/ | %46
 (F,G,A,) | F,3 :| %48
V:3
 x3 | x3 | x3 | x3 | x3 | x3 | x3 | x3 | x3 | x3 | x3 | x3 | x3 | x3 | x3 | x3 | x3 | x3 | x3 | %19
 x3 | x3 | x3 | x3 | z/ F,/C,/A,,/ F,, :: x3 | x3 | x3 | x3 | x3 | x3 | x3 | x3 | x3 | x3 | x3 | %35
 x3 | x3 | x3 | x3 | x3 | x3 | x3 | x3 | x3 | x3 | x3 | x3 | z/ D,/A,,/F,,/ D,, :| %48

